X:586
T:
S:Vismelodi begagnad som schottis; uppt. efter Aron Gustafsson från Burs.
R:schottis
O:Gotland, Burs
M:2/4
L:1/16
K:D
A2|d2f2 A2d2|f4 g2b2|a3e g2c2|d2f2 A3A|d2f2 A2d2|f4 g2b2|a2e2 g2f2|d4
z2::cd|e2ee e2f2|g2ag f2e2|dedc d2b2|a6 A2|d2f2 A2d2|f4 g2b2|a2e2 g2f2|d4
z2:|

